svgs/addyio.svg

<svg width="192" height="192" viewBox="0 0 192 192" fill="none" xmlns="http://www.w3.org/2000/svg">
<path d="M126.758 59.7664C127.137 57.8019 127.335 55.7726 127.335 53.6968C127.335 36.1912 113.244 22 95.8628 22C78.4812 22 64.3907 36.1912 64.3907 53.6968C64.3907 55.7726 64.5889 57.8019 64.9672 59.7664" stroke="black" stroke-width="12" stroke-linecap="round"/>
<path d="M116.703 85.8431H75.0228C70.9059 85.8431 67.5686 89.266 67.5686 93.4884V136.237C67.5686 140.459 70.9059 143.882 75.0228 143.882H116.703C120.82 143.882 124.157 140.459 124.157 136.237V93.4884C124.157 89.266 120.82 85.8431 116.703 85.8431Z" stroke="black" stroke-width="12"/>
<path d="M40 137.659V95.1724C40 76.0527 55.4995 60.5531 74.6192 60.5531H117.107C136.226 60.5531 151.725 76.0527 151.725 95.1724V105.401C151.725 124.52 144.471 143.882 117.107 143.882H95.8627M40 137.659V114.842M40 137.659C40 156.779 55.4995 170 74.6192 170H98.2232" stroke="black" stroke-width="12" stroke-linecap="round" stroke-linejoin="round"/>
</svg>

<svg xmlns="http://www.w3.org/2000/svg" width="192" height="192" fill="none" viewBox="0 0 192 192"><path stroke="#000" stroke-linecap="round" stroke-width="12" d="M126.758 59.766a32.02 32.02 0 0 0 .577-6.07C127.335 36.192 113.244 22 95.863 22 78.48 22 64.39 36.191 64.39 53.697c0 2.076.198 4.105.576 6.07"/><path stroke="#000" stroke-width="12" d="M116.703 85.843h-41.68c-4.117 0-7.454 3.423-7.454 7.645v42.749c0 4.222 3.337 7.645 7.454 7.645h41.68c4.117 0 7.454-3.423 7.454-7.645V93.488c0-4.222-3.337-7.645-7.454-7.645Z"/><path stroke="#000" stroke-linecap="round" stroke-linejoin="round" stroke-width="12" d="M40 137.659V95.172c0-19.12 15.5-34.619 34.62-34.619h42.487c19.119 0 34.618 15.5 34.618 34.62V105.4c0 19.119-7.254 38.481-34.618 38.481H95.863M40 137.659v-22.817m0 22.817C40 156.779 55.5 170 74.62 170h23.603"/></svg>
